!!!!SEGMENT: pl-wtm--r-693-m--007_moniuszko-stanislaw--sonety-krymskie-pielgrzym.krn
!!!cenid: 18xx:2938
!!!COM: Moniuszko, Stanisław
!!!COM-rismid: pe30008351
!!!CDT: 1819/05/05-1872/06/04
!!!CNT: Polish
!!!OTL: Sonety krymskie – Pielgrzym
!!!PDT:
!!!AGN: Secular; Sonnet
!!!SMS-siglum: PL-Wtm
!!!SMS-shelfmark: R 693/M
!!!SMS-shelfwork: 007 G
!!!SMS-variant:
!!!SMS-altvar:
!!!NIFC-rismid: 1001096156
!!!URL-scan: http://repozytorium.nifc.pl/skany/pl-wtm-nut--r693m
!!!ONB-nifc: UWAGA: zbiór zawiera: 1. Cisza morska, 2. Żegluga, 3. Burza, 4. Ruina, 5. Noc, 6. Hymn, 7. Pielgrzym, 8. Epilog
**kern	**text	**text	**kern	**text	**text	**text
*part2	*part2	*part2	*part1	*part1	*part1	*part1
*staff2	*staff2	*staff2	*staff1	*staff1	*staff1	*staff1
*I"[Soprano]	*	*	*I"[Soprano]	*	*	*
*clefG2	*	*	*clefG2	*	*	*
*k[f#]	*	*	*k[f#]	*	*	*
*G:	*	*	*G:	*	*	*
*M6/8	*	*	*M6/8	*	*	*
=1	=1	=1	=1	=1	=1	=1
!LO:TX:t=P:problem:partia pomocnicza do rozpisania tekstu słownego. Brak klucza,znaków,metrum	!	!	!LO:TX:a:t=2.	!	!	!
!	!	!	!LO:TX:a:t=Il Pellegrino:color=dodgerblue	!	!	!
!	!	!	!LO:TX:a:t=No 8. Pielgrzym.	!	!	!
!	!	!	!LO:TX:a:t=Der Pilger.:color=purple	!	!	!
!LO:TX:a:t=1	!	!	!	!	!	!
2.r	.	.	2.r	.	.	.
=2	=2	=2	=2	=2	=2	=2
4r	.	.	2.r	.	.	.
8r	.	.	.	.	.	.
4r	.	.	.	.	.	.
*	*color:purple	*	*	*	*	*
!LO:TX:t=P:problem:tekst po niemiecku w całości pod 2 pięciolinią	!	!	!	!	!	!
8b\	Vor	.	.	.	.	.
=3	=3	=3	=3	=3	=3	=3
*	*	*	*	*	*color:orange	*color:purple
2.ryy	.	.	4b\	U	Miro	mir
.	.	.	8b\	stóp	un	ein
.	.	.	(8b\	mo-	li-	Land
.	.	.	8g/)	-ich	-do	.
.	.	.	8a/	kra-	at-	der
=4	=4	=4	=4	=4	=4	=4
2.ryy	.	.	4.b\	-i-	-tor-	Fül-
.	.	.	8b\	-na	-no	-le
.	.	.	8r	.	.	.
.	.	.	8dd\	do-	di	und
=5	=5	=5	=5	=5	=5	=5
*	*color:orange	*color:purple	*	*	*	*
4ee\	dol-	la-	4.ee\	-stat-	.	.
8ee\	-ce	-chend	.	.	.	.
4dd\	e	grü-	4dd\	-ków	.	.
8g/	fio	-ne	8g/	i	.	.
!!LO:LB:g=original
=6	=6	=6	=6	=6	=6	=6
2.ryy	.	.	4.b\	kra-	ren-	Wei-
.	.	.	8b\	-sy	-te	-ten,
.	.	.	8r	.	.	.
.	.	.	8b\	nad	di	Ob
=7	=7	=7	=7	=7	=7	=7
2.ryy	.	.	4a/	gło-	zaf-	mir
.	.	.	8a/	-wą	-fi-	ein
.	.	.	8a/L	nie-	-ro	kla-
.	.	.	8b/J	.	.	.
.	.	.	8cc\	-bo	un	-rer
=8	=8	=8	=8	=8	=8	=8
2.ryy	.	.	[4.dd\	ja-	pie-	Him-
.	.	.	4dd\]	.	-do	-mel,
.	.	.	8b\	-sne,	e un	zur
=9	=9	=9	=9	=9	=9	=9
2.ryy	.	.	4g/	o-	vol-	Seit'
.	.	.	8g/	-bok	-to	mir
.	.	.	[4cc\	pię-	sor-	hol-
.	.	.	16cc\]	.	.	.
.	.	.	16b\	-kne	-ri-	-de
!!LO:LB:g=original
=10	=10	=10	=10	=10	=10	=10
2.ryy	.	.	[4.b\	li-	-den-	Wan-
.	.	.	8b\]	.	.	.
.	.	.	8b\	-co;	-te	-gen;
.	.	.	8r	.	.	.
=11	=11	=11	=11	=11	=11	=11
!	!	!	!LO:TX:a:t=1.	!	!	!
2.ryy	.	.	2.r	.	.	.
=12	=12	=12	=12	=12	=12	=12
2.ryy	.	.	4r	.	.	.
.	.	.	8r	.	.	.
.	.	.	4r	.	.	.
.	.	.	8b\	dla	Per-	Was
=13	=13	=13	=13	=13	=13	=13
2.ryy	.	.	4e/	cze-	-chè	lockt
.	.	.	8f#/	-góż	i e	wohl
.	.	.	8g/L	stąd	mi-	mei-
.	.	.	8a/J	.	.	.
.	.	.	8b\	u-	-o	-ne
=14	=14	=14	=14	=14	=14	=14
2.ryy	.	.	[4.cc\	-cie-	cuo-	See-
.	.	.	4cc\]	.	.	le,
.	.	.	8cc\	-ka	-re	hin
!!LO:LB:g=original
=15	=15	=15	=15	=15	=15	=15
*	*	*	*^	*	*	*
!	!	!	!	!LO:TX:t=P:problem:stem.color=orange	!	!	!
2.ryy	.	.	8cc\L	8cc/	ser-	cir-	weg
!	!	!	!	!LO:TX:t=P:problem:stem.color=orange	!	!	!
.	.	.	8b\J	8b/	.	-ca	.
.	.	.	8a#X/	8ryy	-ce	lon-	von
.	.	.	4b\	4ryy	w_o-	-ta-	all'
.	.	.	8f#/	8ryy	-ko-	-ni	dem
*	*	*	*v	*v	*	*	*
=16	=16	=16	=16	=16	=16	=16
2.ryy	.	.	4.a/	-li-	si-	Pran-
.	.	.	8g/	-ce	-ti	-gen
.	.	.	8r	.	.	.
.	.	.	8g/	da-	E	In
=17	=17	=17	=17	=17	=17	=17
2.ryy	.	.	4g/	-le-	più	fer-
.	.	.	8a/	-kie	lon-	-mes
.	.	.	8b\L	i	-tan	Land
.	.	.	8cc#X\J	.	.	.
.	.	.	8dd\	nie-	ru-	zu
=18	=18	=18	=18	=18	=18	=18
2.ryy	.	.	[4.dd\	-ste-	-co-	flie-
.	.	.	4dd\]	.	.	-hon
.	.	.	8a/	-ty!	-rai	und
!!LO:LB:g=original
=19	=19	=19	=19	=19	=19	=19
2.ryy	.	.	4a/	je-	gior-	in
.	.	.	8b/	-szcze	-ni	noch
.	.	.	4a/	w_dal-	bei	fern'-
.	.	.	8e/	-sze	fug-	-re
=20	=20	=20	=20	=20	=20	=20
2.ryy	.	.	4.g/	cza-	-gi-	Zei-
.	.	.	4f#/	-sy?	-ti?	-ten?
.	.	.	8r	.	.	.
=21	=21	=21	=21	=21	=21	=21
!	!	!	!LO:TX:a:t=1.	!	!	!
2.ryy	.	.	2.r	.	.	.
=22	=22	=22	=22	=22	=22	=22
2.ryy	.	.	4r	.	.	.
.	.	.	8r	.	.	.
.	.	.	4r	.	.	.
.	.	.	8f#/	Tam	O	O
=23	=23	=23	=23	=23	=23	=23
2.ryy	.	.	[4.a/	wdzię-	pa-	hört'
.	.	.	4a/]	.	-tria!	.
.	.	.	8f#/	-czniej	Tuoi	ich
!!LO:LB:g=original
=24	=24	=24	=24	=24	=24	=24
2.ryy	.	.	[4.a#X/	pia-	bos-	wie-
.	.	.	4a#/]	.	.	-der
.	.	.	8a#/	-ły	-chi a-	das
=25	=25	=25	=25	=25	=25	=25
!	!	!	!LO:N:xstem	!	!	!
!	!	!	!LO:TX:t=P:problem:nieczytelny tekst włoski	!	!	!
2.ryy	.	.	4b/	twe	-vean	Rau-
.	.	.	8cc\	szu-	piu	-schen
.	.	.	[4b\	-mią-	dol-	dei-
.	.	.	16b\]	.	.	.
.	.	.	16a/	-ce	-ci	-ner
=26	=26	=26	=26	=26	=26	=26
*	*color:purple	*	*	*	*	*
4.a/	Wäl-	.	4.a/	la-	can-	.
16a/	-der,	.	16g/	-sy	-ti	.
16r	.	.	16r	.	.	.
8r	.	.	8.g/	niż	Che in	.
8a/	Gern	.	.	.	.	.
.	.	.	16g/	sło-	Baï-	.
!!LO:LB:g=original
=27	=27	=27	=27	=27	=27	=27
2.ryy	.	.	[4.b\	-wi-	-dan	wollt'
.	.	.	8.b\]	.	gli	ich
.	.	.	16a/	-ki	us.	Bai-
.	.	.	8g/	Baj-	zig-	-dars
=28	=28	=28	=28	=28	=28	=28
2.ryy	.	.	[4.cc\	-da-	-nuo-	Lie-
.	.	.	4cc\]	.	-li	-der
.	.	.	8cc\	-ru	le	und
=29	=29	=29	=29	=29	=29	=29
2.ryy	.	.	8cc\	Sal-	vir-	Sal-
.	.	.	[4dd\	-hi-	.	-hirs
.	.	.	8dd\]	.	.	.
.	.	.	8cc\	-ry	-gi-	Mäd-
.	.	.	8g/	dzie-	-ne a-	-chen
=30	=30	=30	=30	=30	=30	=30
2.ryy	.	.	4.b-X\	-wi-	-man-	mei-
.	.	.	4a/	-ce,	-ti	-den,
.	.	.	8r	.	.	.
!!LO:LB:g=original
=31	=31	=31	=31	=31	=31	=31
!	!	!	!LO:TX:a:t=3.	!	!	!
2.ryy	.	.	2.r	.	.	.
=32	=32	=32	=32	=32	=32	=32
2.ryy	.	.	2.r	.	.	.
=33	=33	=33	=33	=33	=33	=33
2.ryy	.	.	2.r	.	.	.
=34	=34	=34	=34	=34	=34	=34
2.ryy	.	.	4r	.	.	.
.	.	.	8r	.	.	.
.	.	.	4r	.	.	.
.	.	.	8fn/	we-	piu	und
=35	=35	=35	=35	=35	=35	=35
2.ryy	.	.	4fn/	-sel-	lie-	lie-
.	.	.	8g/	-szy	-to	-der
.	.	.	8a/L	tam	le	möchtʼ
.	.	.	8b-X/J	.	.	.
.	.	.	8cc\	de-	de-	ich
=36	=36	=36	=36	=36	=36	=36
2.ryy	.	.	[4.dd\	-pta-	-sen-	wa-
.	.	.	4dd\]	.	.	-ten
.	.	.	8dd\	-łem	-te	dŭrch
!!LO:PB:g=original
=37	=37	=37	=37	=37	=37	=37
2.ryy	.	.	4dd\	two-	Step-	dei-
.	.	.	8ee-X\	-je	-pe	-ne
.	.	.	[4dd\	trzę-	ho-	moss'-
.	.	.	16dd\]	.	.	.
.	.	.	16cc\	-sa-	-mi-	-gen
=38	=38	=38	=38	=38	=38	=38
2.ryy	.	.	4.cc\	-wi-	-na-	Hei-
.	.	.	8b-X\	-ce	-to	-den,
.	.	.	8r	.	.	.
.	.	.	8g/	niż	Che ie	Als
=39	=39	=39	=39	=39	=39	=39
2.ryy	.	.	4g/	ru-	grap-	gold-
.	.	.	8a/	-bi-	-po-	-ne
.	.	.	8b-X\L	-no-	-lo	Früch-
.	.	.	8cc\J	.	.	.
.	.	.	8dd\	-we	vir-	-te
=40	=40	=40	=40	=40	=40	=40
2.ryy	.	.	[4.ee-X\	mor-	-mi-	pflü-
.	.	.	4ee-\]	.	.	-cken
.	.	.	8ee-\	-wy	-glio	und
!!LO:LB:g=original
=41	=41	=41	=41	=41	=41	=41
2.ryy	.	.	4ee-X\	zło-	l'a-	gehn
.	.	.	8ffn\	-te	-na-	durch
.	.	.	[4ee-\	a-	-nas	Blu-
.	.	.	16ee-\]	.	.	.
.	.	.	16dd-X\	-na-	do-	-men-
=42	=42	=42	=42	=42	=42	=42
2.ryy	.	.	4.dd-X\	-na-	-ra-	-fel-
.	.	.	4cc\	-sy	-to.	-der!
.	.	.	8r	.	.	.
=43	=43	=43	=43	=43	=43	=43
!	!	!	!LO:TX:a:t=1.	!	!	!
2.ryy	.	.	2.r	.	.	.
=44	=44	=44	=44	=44	=44	=44
2.ryy	.	.	4r	.	.	.
!	!	!	!LO:TX:a:i:t=Con animato	!	!	!
.	.	.	8r	.	.	.
.	.	.	4r	.	.	.
.	.	.	16ee-X\LL	U	At-	Vor
.	.	.	16cc\JJ	.	.	.
!!LO:LB:g=original
=45	=45	=45	=45	=45	=45	=45
2.ryy	.	.	4a-X/	mo-	-tor-	mir
.	.	.	8a-/	-ich	-no_a	ein
.	.	.	4a-/	stóp	me	Land
.	.	.	8g/	kra-	io	der
=46	=46	=46	=46	=46	=46	=46
2.ryy	.	.	4.g/	-i-	mi-	Fül-
.	.	.	8f#X/	-na	-ro	-le
.	.	.	8r	.	.	.
.	.	.	8an/	do-	un	und
=47	=47	=47	=47	=47	=47	=47
2.ryy	.	.	4dd\	-stat-	li-	la-
.	.	.	8a/	-ków,	-do	-chen
.	.	.	(8a/	kra-	dol-	grü-
.	.	.	8bn\)	-i-	-ce e	.
.	.	.	8cc\	-na	fio-	-ne
=48	=48	=48	=48	=48	=48	=48
2.ryy	.	.	(4cc\	kra-	-ren-	Wei-
.	.	.	8b\)	.	.	.
.	.	.	8dd\	-sy	-te	-ten,..
.	.	.	8.r	.	.	.
.	.	.	16ee\	nad	Di	Was
!!LO:LB:g=original
=49	=49	=49	=49	=49	=49	=49
2.ryy	.	.	(4ee\	gło-	zaf-	locht
.	.	.	8a/)	-wą	-fi-	wohl
.	.	.	8a/L	nie-	-ro	mei-
.	.	.	8b/J	.	.	.
.	.	.	8cc\	-bo	un	-ne
=50	=50	=50	=50	=50	=50	=50
2.ryy	.	.	4.cc\	ja-	Cie-	See-
.	.	.	8b\	-sne...	-lo	-le,
.	.	.	8r	.	.	.
.	.	.	16dd\LL	dla	un	hin-
.	.	.	16b\JJ	.	.	.
=51	=51	=51	=51	=51	=51	=51
2.ryy	.	.	4g/	cze-	val-	-weg
.	.	.	8g/	-góż	-to	von
.	.	.	4g/	stąd	sor-	all'
.	.	.	8f#/	u-	-ri-	dem
=52	=52	=52	=52	=52	=52	=52
2.ryy	.	.	4.f#/	-cie-	-den-	Pran-
.	.	.	8e/	-ka	-te	-gen,
.	.	.	8r	.	.	.
.	.	.	16ee^\LL	nie	Per	hin
.	.	.	16cc\JJ	.	.	.
!!LO:LB:g=original
=53	=53	=53	=53	=53	=53	=53
2.ryy	.	.	4a/	ser-	che	weg
.	.	.	8a/	-ce	vi-	von
.	.	.	4a/	w_o-	-fin-	all'
.	.	.	8g/	-ko-	-tall	dem
=54	=54	=54	=54	=54	=54	=54
2.ryy	.	.	4.g/	-li-	cuo	Pran-
.	.	.	8f#/	-ce	re	-gen
.	.	.	8r	.	.	.
.	.	.	16d/LL	da-	Bel-	In
.	.	.	16e/JJ	.	.	.
=55	=55	=55	=55	=55	=55	=55
2.ryy	.	.	8f#/L	-le-	-lez-	fer-
.	.	.	8g/J	.	.	.
.	.	.	8a/	-kie	-za	-nes
.	.	.	8b\L	i	e	Land
.	.	.	8cc\J	.	.	.
.	.	.	8dd\	nie-	a-	zu
=56	=56	=56	=56	=56	=56	=56
2.ryy	.	.	[4.ee\	-ste-	-mo-	flie-
.	.	.	4ee\]	.	-re	-hen
.	.	.	8dd\	-ty!	Per-	um
!!LO:LB:g=original
=57	=57	=57	=57	=57	=57	=57
.	.	.	8qdd/	.	.	.
2.ryy	.	.	8.cc\L	je-	-che	nach
.	.	.	16b\Jk	.	.	.
.	.	.	8cc\	-szcze	sos-	in
.	.	.	8a/L	w dal-	-pi-	fern'-
.	.	.	8b/J	.	-ra	.
.	.	.	8cc\	-sze	in	-re
=58	=58	=58	=58	=58	=58	=58
2.ryy	.	.	4.dd\	cza-	va-	Zei-
.	.	.	8b\	-sy	-no	-ten,
.	.	.	8f#/	i	E	ach,
.	.	.	8g/	nie-	sos-	und
=59	=59	=59	=59	=59	=59	=59
*	*	*	*^	*	*	*
!	!	!	!	!LO:TX:t=P:problem:stem.color=orange	!	!	!
2.ryy	.	.	8a/L	8a\	-ste-	-pi-	noch
!	!	!	!	!LO:TX:t=P:problem:stem.color=orange	!	!	!
.	.	.	8b/J	8b\	.	-ra	.
.	.	.	8cc\	8ryy	-ty!	in	in
!	!	!	!	!LO:TX:t=P:problem:stem.color=orange	!	!	!
.	.	.	8dd\L	8dd/	je-	va-	fern-
!	!	!	!	!LO:TX:t=P:problem:stem.color=orange	!	!	!
.	.	.	8ee\J	8ee/	.	no	.
.	.	.	8ff#\	8ryy	-szcze	il	-re
*	*	*	*v	*v	*	*	*
!!LO:LB:g=original
=60	=60	=60	=60	=60	=60	=60
2.ryy	.	.	[2.gg\	w_dal-	pa-	Zei-
=61	=61	=61	=61	=61	=61	=61
2.ryy	.	.	2.gg\_	.	.	.
=62	=62	=62	=62	=62	=62	=62
2.ryy	.	.	4gg\]	.	.	.
.	.	.	8dd\	-sze,	-trio	-ten,
.	.	.	[4ee;\	dal-	su-	fern'-
.	.	.	16ee\]	.	-ol	.
.	.	.	16b\	-sze	lon-	-re
=63	=63	=63	=63	=63	=63	=63
2.ryy	.	.	([4.dd;\	cza-	-ta-	Zei-
.	.	.	4dd\]	.	.	.
.	.	.	24cc\LL	.	.	.
.	.	.	24b\	.	.	.
.	.	.	24a\JJ)	.	.	.
!!LO:LB:g=original
=64	=64	=64	=64	=64	=64	=64
2.ryy	.	.	4g/	-sy.	-no!	-ten!
.	.	.	8r	.	.	.
.	.	.	4r	.	.	.
.	.	.	8r	.	.	.
=65	=65	=65	=65	=65	=65	=65
!	!	!	!LO:TX:a:t=3.	!	!	!
2.ryy	.	.	2.r	.	.	.
=66	=66	=66	=66	=66	=66	=66
2.ryy	.	.	2.r	.	.	.
=67	=67	=67	=67	=67	=67	=67
2.ryy	.	.	2.r	.	.	.
=68	=68	=68	=68	=68	=68	=68
4r	.	.	4r	.	.	.
8r	.	.	8r	.	.	.
*	*color:orange	*	*	*	*	*
8cc\	Lun-	Was	4cc;\	Tak	.	.
8cc;\	-gi-	mag	.	.	.	.
8cc\	-as	zum	8cc\	da-	.	.
=69	=69	=69	=69	=69	=69	=69
2.ryy	.	.	(4.cc\	-le-	sa-	Nor-
.	.	.	8d#X/)	-ki!	-i	-den,
.	.	.	8r	.	.	.
.	.	.	8d#/	tak	mi	zum
=70	=70	=70	=70	=70	=70	=70
*	*color:purple	*	*	*	*	*
[4.e/	fer-	.	[4.e/	ró-	chia	.
8e/]	.	.	8e/L]	.	.	.
8f#/	-nen	.	8f#/J	.	.	.
8g/	so	.	8g/	-żna	ma	.
!!LO:PB:g=original
=71	=71	=71	=71	=71	=71	=71
2.ryy	.	.	4b\	wa-	ben	mei-
.	.	.	8a/	-bi	di-	-ne
.	.	.	8qb/	.	.	.
.	.	.	8.a/L	mię	-ver-	Si-
.	.	.	16g/Jk	.	-so	.
.	.	.	8f#/	po-	af-	-ne
=72	=72	=72	=72	=72	=72	=72
4.g/	len-	.	(4.g/	-nę-	-fit-	.
8b\	-ken,	.	8b\)	-ta;	-to.	.
8b\	Das-	.	8r	.	.	.
8b\	-so-	.	8b\	dla	Pe-	.
=73	=73	=73	=73	=73	=73	=73
4.b-X\	-viel	.	4b-X\	cze-	-chè	.
.	.	.	8b-\	-goż	bin	.
4a/	flücht	.	4a/	ro-	ciar-	.
8a/	ge	.	8a/	-star-	-mi	.
=74	=74	=74	=74	=74	=74	=74
*	*	*color:orange	*	*	*	*
4.g#X/	Senf-	sen-	4.g#X/	-gnio-	.	.
4gn/	-zer	-to	4.gn/	-ny	.	.
8g/	die	un	.	.	.	.
!!LO:LB:g=original
=75	=75	=75	=75	=75	=75	=75
2.ryy	.	.	4f#/	wzdy-	sol	Win-
.	.	.	8f#/	-cham	de-	-de
.	.	.	4e#X/	bez	-sio	schan
.	.	.	8e#/	u-	in	ver-
=76	=76	=76	=76	=76	=76	=76
2.ryy	.	.	4.en/	-stan-	pet-	-weh-
.	.	.	4e/	-ku,	-to	-ten,
.	.	.	8r	.	.	.
=77||	=77||	=77||	=77||	=77||	=77||	=77||
*k[f#c#]	*	*	*k[f#c#]	*	*	*
2.ryy	.	.	4.f#/	dla-	pen-	viel
.	.	.	4g/	-cze-	-so_a-	flücht'
.	.	.	8a/	-go	-co-	ge-
=78	=78	=78	=78	=78	=78	=78
2.ryy	.	.	[4.dd\	wzdy-	-lei	-senf-
.	.	.	4dd\]	.	che	-zer
.	.	.	8cc#X\	-cham	an-	die
!!LO:LB:g=original
=79	=79	=79	=79	=79	=79	=79
2.ryy	.	.	4cc#\	wzdy-	-cor	Win-
.	.	.	8b\	-cham	fan-	-de
.	.	.	8b/L	be	-ciul-	schon
.	.	.	8a/J	.	-lo	.
.	.	.	8g/	u-	a-	ver-
=80	=80	=80	=80	=80	=80	=80
2.ryy	.	.	4.a/	-stan-	-ma-	-weh-
.	.	.	8f#/	-ku	-i	-ten
.	.	.	8r	.	.	.
.	.	.	8a/	do	Sos-	Nach
=81	=81	=81	=81	=81	=81	=81
2.ryy	.	.	4.b\	tej	-pi-	ihr,
.	.	.	8dd\	któ-	-ro	für
.	.	.	8cc#\	-rą	la	die
.	.	.	8b\	ko-	mia	so
=82	=82	=82	=82	=82	=82	=82
2.ryy	.	.	[4.b\	-cha-	pa-	feu-
.	.	.	4b\]	.	.	-rig
.	.	.	8a/	-łem	-tria	mein
!!LO:LB:g=original
=83	=83	=83	=83	=83	=83	=83
*	*	*	*^	*	*	*
.	.	.	8qa	.	.	.	.
!	!	!	!	!LO:TX:t=P:problem:stem.color=orange	!	!	!
2.ryy	.	.	8g/L	8g\	w_mo-	ch'e	jun-
!	!	!	!	!LO:TX:t=P:problem:stem.color=orange	!	!	!
.	.	.	8f#/J	8f#\	.	su-	.
.	.	.	8g/	8ryy	-ich	-le	-ges
.	.	.	8b/L	4ryy	dni	ab-	Herz
.	.	.	8g/J	.	.	-ban-	.
.	.	.	8f#/	8ryy	po-	-do-	ent-
*	*	*	*v	*v	*	*	*
=84	=84	=84	=84	=84	=84	=84
2.ryy	.	.	(4e/	-ran-	-nai	-brann-
.	.	.	16g/LL	.	.	.
.	.	.	16f#/JJ)	.	.	.
.	.	.	4e/	-ku?	.	-te?
.	.	.	8r	.	.	.
=85	=85	=85	=85	=85	=85	=85
2.ryy	.	.	[4.f#/	tak	Do-	für
.	.	.	8f#/]	.	-ve	.
.	.	.	8a/	ją	tut-	die
.	.	.	8dd\	ko-	-to	so
=86	=86	=86	=86	=86	=86	=86
2.ryy	.	.	[4.ff#\	-cha-	ri-	fen-
.	.	.	4ff#\]	.	-cor-	-rig
.	.	.	8ee\	-łem	-da	mein
!!LO:LB:g=original
=87	=87	=87	=87	=87	=87	=87
2.ryy	.	.	4dd\	w_mo-	la	jun-
.	.	.	8a/	-ich	mia	-ges
.	.	.	8a/L	dni	gio-	Herz
.	.	.	8f#/J	.	.	.
.	.	.	8g/	po-	-ja	ent-
=88	=88	=88	=88	=88	=88	=88
2.ryy	.	.	4.b\	-ran-	spen-	-bran-
.	.	.	16a/	-ku!	-ta	-nte?
.	.	.	16r	.	.	.
.	.	.	(8dd\	Tam	Do-	Sie
.	.	.	8a/)	jej	-ve	.
=89	=89	=89	=89	=89	=89	=89
2.ryy	.	.	(4a/	wszy-	tut-	wan-
.	.	.	8g#X/)	.	-to	-delt
.	.	.	4g#/	-stko	mi	in
.	.	.	8gn/	o	ri-	der
=90	=90	=90	=90	=90	=90	=90
2.ryy	.	.	4.f#/	wier-	-cor-	Hei-
.	.	.	8dd\	-nym	-da	-math;
.	.	.	8r	.	.	.
.	.	.	8f#/	po-	mia	oft
!!LO:LB:g=original
=91	=91	=91	=91	=91	=91	=91
!	!	!	!LO:S:color=orange	!	!	!
2.ryy	.	.	(>[4.e/	-wia-	gio-	mag
.	.	.	8e/]	.	.	.
.	.	.	8f#/)	-da	.	.
.	.	.	8g/	ko-	-ja	sie
=92	=92	=92	=92	=92	=92	=92
4.b\	tre-	.	4.b\	-chan-	spen-	.
16a/	-ten	.	16a/	-ku	-ta	.
16r	.	.	16r	.	.	.
8r	.	.	8a/	dep-	ma	.
8a/	in	.	8a/	-cąc	di	.
=93	=93	=93	=93	=93	=93	=93
4b\	mei-	.	4.b\	świe-	me	.
8b\	-ne	.	.	.	.	.
4cc#X\	flücht'	.	4cc#X\	-że	chi	.
8cc#\	ge	.	8cc#\	me	ram-	.
=94	=94	=94	=94	=94	=94	=94
4.ee\	Spu-	.	(4.ee\	śla-	-men-	.
16dd\	-ren,	.	8dd\)	-dy	-ta?	.
16r	.	.	.	.	.	.
8dd\	wird	.	8r	.	.	.
8dd\	sie	.	8dd\	czyż	di	.
!!LO:LB:g=original
=95	=95	=95	=95	=95	=95	=95
2.ryy	.	.	4.e/	o	me	wohl
.	.	.	4f#/	mnie	chi	mein
.	.	.	8f#/	pa-	ram-	ge-
=96	=96	=96	=96	=96	=96	=96
2.ryy	.	.	2.a;/	-mię-	-men-	-den-
=97||	=97||	=97||	=97||	=97||	=97||	=97||
!	!	!	!LO:TX:a:i:t=più mosso.	!	!	!
2.ryy	.	.	4g/	-ta?	-ta?	-ken?
.	.	.	8r	.	.	.
.	.	.	4r	.	.	.
.	.	.	8r	.	.	.
=98	=98	=98	=98	=98	=98	=98
!	!	!	!LO:TX:a:t=2.	!	!	!
2.ryy	.	.	2.r	.	.	.
=99	=99	=99	=99	=99	=99	=99
2.ryy	.	.	2.r	.	.	.
=100	=100	=100	=100	=100	=100	=100
2.ryy	.	.	2.r;	.	.	.
=101||	=101||	=101||	=101||	=101||	=101||	=101||
!	!	!	!LO:TX:a:i:t=più lento.	!	!	!
!	!	!	!LO:TX:a:t=4.	!	!	!
2.ryy	.	.	2.r	.	.	.
=102	=102	=102	=102	=102	=102	=102
2.ryy	.	.	2.r	.	.	.
=103	=103	=103	=103	=103	=103	=103
2.ryy	.	.	2.r	.	.	.
=104	=104	=104	=104	=104	=104	=104
2.ryy	.	.	2.r	.	.	.
!!LO:LB:g=original
=105||	=105||	=105||	=105||	=105||	=105||	=105||
*	*	*	*ok[f#cn]	*	*	*
*k[f#]	*	*	*k[f#]	*	*	*
2.ryy	.	.	4b\	U	Mi	Hier
.	.	.	8b\	stóp	roun	ein
.	.	.	(8a/	mo-	li	Land
.	.	.	8g/)	-ich	do	.
.	.	.	8a/	kra-	at-	der
=106	=106	=106	=106	=106	=106	=106
2.ryy	.	.	4.b\	-i-	-tor-	Fül-
.	.	.	8b\	-na	-no	-le
.	.	.	8r	.	.	.
.	.	.	8dd\	do-	vi	und
=107	=107	=107	=107	=107	=107	=107
*	*	*	*	*	*	*^
2.ryy	.	.	4.ee\	-stat-	dol-	[[E<..>	la-
.	.	.	8qqee\	.	-ce	.	-chend
.	.	.	8dd\	-ków	e	<.>e	grü-
.	.	.	8r	.	.	.	.
.	.	.	8g/	i	fio-	<....>]]	-ner
*	*	*	*	*	*	*v	*v
=108	=108	=108	=108	=108	=108	=108
2.ryy	.	.	4.b\	kra-	-ren-	Wei-
.	.	.	8b\	-sy	-te	-ten,
.	.	.	8r	.	.	.
.	.	.	8b\	nad	Di	ob
!!LO:PB:g=original
=109	=109	=109	=109	=109	=109	=109
2.ryy	.	.	4a/	gło-	zaf-	mir
.	.	.	8a/	-wą	-fi-	ein
.	.	.	8a/L	nie-	-ro	Kla-
.	.	.	8b/J	.	.	.
.	.	.	8cc\	-bo	un	-rer
=110	=110	=110	=110	=110	=110	=110
2.ryy	.	.	[4.dd\	ja-	cie-	Him-
.	.	.	4dd\]	.	lo	-mel,
.	.	.	8b\	-sne,	un	zur
=111	=111	=111	=111	=111	=111	=111
2.ryy	.	.	4g/	o-	vol-	Seit'
.	.	.	8g/	-bok	-to	mir
.	.	.	[4cc\	pię-	sor-	hol-
.	.	.	16cc\]	.	.	.
.	.	.	16b\	-kne	-ri-	-de
=112	=112	=112	=112	=112	=112	=112
2.ryy	.	.	4.b\	li-	-den-	Wan-
.	.	.	8b\	-ce	-te!	-gen;
.	.	.	8r	.	.	.
.	.	.	8e/	dla-	Per-	Was
!!LO:LB:g=original
=113	=113	=113	=113	=113	=113	=113
2.ryy	.	.	4e/	-cze-	-chè	lockt
.	.	.	8f#/	-goż	il	wohl
.	.	.	8g/L	stąd	mi-	mei-
.	.	.	8a/J	.	.	.
.	.	.	8b\	u-	-o	-ne
=114	=114	=114	=114	=114	=114	=114
2.ryy	.	.	[4.cc\	-cie-	cu-	See-
.	.	.	4cc\]	.	-o-	-le,
.	.	.	8cc\	-ka	-re	hin-
=115	=115	=115	=115	=115	=115	=115
2.ryy	.	.	8cc\L	ser-	cer-	-weg
.	.	.	8b\J	.	ca	.
.	.	.	8a#X/	-ce	lon-	von
.	.	.	4b\	w_o-	-ta-	all'
.	.	.	8f#/	-ko-	-ni	dem
=116	=116	=116	=116	=116	=116	=116
2.ryy	.	.	4.an/	-li-	Si-	Pran-
.	.	.	8g/	-ce	-ti	-gen
.	.	.	8r	.	.	.
.	.	.	8g/	da-	E	In
!!LO:LB:g=original
=117	=117	=117	=117	=117	=117	=117
*	*	*	*^	*	*	*
2.ryy	.	.	4g/	4ryy	-le-	più	fer-
.	.	.	8a/	8ryy	-kie	lon-	-ner
!	!	!	!	!LO:TX:t=P:problem:stem.color=orange	!	!	!
.	.	.	8b\L	8b/	i	-ta-	Land
!	!	!	!	!LO:TX:t=P:problem:stem.color=orange	!	!	!
.	.	.	8cc#X\J	8cc#/	.	-no	.
!	!	!	!	!LO:TX:t=P:problem:stem.color=orange	!	!	!
.	.	.	8dd\	8dd/	nie-	an-	zu
*	*	*	*v	*v	*	*	*
=118	=118	=118	=118	=118	=118	=118
2.ryy	.	.	[4.dd\	-ste-	-cor-	flie-
.	.	.	4dd\]	.	.	-hen
.	.	.	8a/	-ty	-i	und
=119	=119	=119	=119	=119	=119	=119
2.ryy	.	.	4cc#X\	jesz-	gior-	in
.	.	.	8b\	-cze	-ni	noch
.	.	.	4a/	w dal-	bei	fern'-
.	.	.	8g/	-sze	fug-	-re
=120	=120	=120	=120	=120	=120	=120
2.ryy	.	.	4.g/	cza-	-gi-	Zei-
.	.	.	8f#/	-sy?	-te?	-ten?
.	.	.	8r	.	.	.
.	.	.	8f#/	tam	O	O
!!LO:LB:g=original
=121	=121	=121	=121	=121	=121	=121
!	!	!	!LO:TX:t=P:problem:dla tekstu włoskiego ligatura wykreślona	!	!	!
2.ryy	.	.	[4.a/	pia-	pa-	hört'
.	.	.	4a/]	.	-tria!	.
.	.	.	8f#/	-ły	Tuoi	ich
=122	=122	=122	=122	=122	=122	=122
2.ryy	.	.	[4.a#X/	wdzię-	bos-	wie-
.	.	.	4a#/]	.	-chi	-der
.	.	.	8f#/	-czniej	a-	das
=123	=123	=123	=123	=123	=123	=123
*	*	*	*^	*	*	*
2.ryy	.	.	8r	4b\	twe	-ven	Rau-
.	.	.	4ryy	.	.	.	.
.	.	.	.	8cc\	szu-	più	-schen
.	.	.	4ryy	[4b\	-mią-	Dol-	dei-
.	.	.	8ryy	16b\]	.	.	.
.	.	.	.	16a/	-ce	-ci	-ner
*	*	*	*v	*v	*	*	*
=124	=124	=124	=124	=124	=124	=124
4.a/	Wäl-	.	4.a/	la-	can-	.
16g/	-der,	.	16g/	-sy	-ti	.
16r	.	.	16r	.	.	.
8r	.	.	8.g/	niż	Che in	.
8g/	Gern	.	.	.	.	.
.	.	.	16g/	sło-	Baï-	.
!!LO:LB:g=original
=125	=125	=125	=125	=125	=125	=125
2.ryy	.	.	[4.b\	-wi-	-der	wollt'
.	.	.	8.b\]	.	gli	ich
.	.	.	16a/	-ki	us	Bai-
.	.	.	8g/	Baj-	sig-	-dars
=126	=126	=126	=126	=126	=126	=126
!	!	!	!LO:TX:t=P:problem:dla tekstu włoskiego ligatura wykreślona	!	!	!
2.ryy	.	.	[4.cc\	-da-	-nuo-	Lie-
.	.	.	4cc\]	.	-li	-der
.	.	.	8cc\	-ru,	le	und
=127	=127	=127	=127	=127	=127	=127
2.ryy	.	.	8cc\	Sal-	Vir-	Sa-
.	.	.	[4dd\	-hi-	.	-hirs
.	.	.	8dd\]	.	gi-	.
.	.	.	8cc\	-ry	-ne	Mäd-
.	.	.	8g/	dzie-	a-	-chen
=128	=128	=128	=128	=128	=128	=128
2.ryy	.	.	4.b-X\	-wi-	-man-	mei-
.	.	.	4a/	-ce,	-ti!	-den!
.	.	.	8r	.	.	.
!!LO:LB:g=original
=129	=129	=129	=129	=129	=129	=129
!	!	!	!LO:TX:a:t=1.	!	!	!
2.ryy	.	.	2.r	.	.	.
=130	=130	=130	=130	=130	=130	=130
2.ryy	.	.	4r	.	.	.
.	.	.	8r	.	.	.
.	.	.	4r	.	.	.
.	.	.	8fn/	we-	più	Und
=131	=131	=131	=131	=131	=131	=131
2.ryy	.	.	4fn/	-sel-	lie-	lie-
.	.	.	8g/	-szy	-to	-ber
.	.	.	8a/L	tam	le	möcht'
.	.	.	8b-X/J	.	.	.
.	.	.	8cc\	de-	De-	ich
=132	=132	=132	=132	=132	=132	=132
2.ryy	.	.	[4.dd\	-pta-	-ves-	wa-
.	.	.	4dd\]	.	.	-ten
.	.	.	8dd\	-łem	-te	dŭrch
!!LO:LB:g=original
=133	=133	=133	=133	=133	=133	=133
2.ryy	.	.	4dd\	two-	Step-	dei-
.	.	.	8ee-X\	-je	-pe	-ne
.	.	.	[4dd\	trzę-	ho-	maas'-
.	.	.	16dd\]	.	.	.
.	.	.	16cc\	-sa-	-mi-	-gen
=134	=134	=134	=134	=134	=134	=134
2.ryy	.	.	4.cc\	-wi-	-ra-	Hei-
.	.	.	8b-X\	-ce	-to	-den,
.	.	.	8r	.	.	.
.	.	.	8g/	niż	Che_il	Als
=135	=135	=135	=135	=135	=135	=135
2.ryy	.	.	4g/	ru-	grap-	gold-
.	.	.	8a/	-bi-	-po-	-ne
.	.	.	8b-X\L	-no-	-lo	Früch-
.	.	.	8cc\J	.	.	.
.	.	.	8dd\	-we	vir-	-te
=136	=136	=136	=136	=136	=136	=136
2.ryy	.	.	[4.ee-X\	mor-	-mi-	pflü-
.	.	.	4ee-\]	.	.	-cken
.	.	.	8ee-\	-wy	-glio	und
!!LO:LB:g=original
=137	=137	=137	=137	=137	=137	=137
2.ryy	.	.	4ee-X\	zło-	l'a-	gehn
.	.	.	8ffn\	-te	-na-	dŭrch
.	.	.	[4ee-\	a-	-nas	Blŭ-
.	.	.	16ee-\]	.	.	.
.	.	.	16dd-X\	-na-	do-	-men-
=138	=138	=138	=138	=138	=138	=138
2.ryy	.	.	4.dd-X\	-na-	-ra-	-gel-
.	.	.	4cc\	-sy.	-to!	-der!
.	.	.	8r	.	.	.
=139	=139	=139	=139	=139	=139	=139
!	!	!	!LO:TX:a:t=1.	!	!	!
2.ryy	.	.	2.r	.	.	.
=140	=140	=140	=140	=140	=140	=140
2.ryy	.	.	4r	.	.	.
.	.	.	8r	.	.	.
.	.	.	4r	.	.	.
.	.	.	16ee-X\LL	U	Per-	Vor
.	.	.	16cc\JJ	.	.	.
!!LO:PB:g=original
=141	=141	=141	=141	=141	=141	=141
*	*	*	*	*	*^	*
*	*	*	*	*	*	*color:orange	*
2.ryy	.	.	4a-X/	mo-	-che	.	mir
.	.	.	8a-/	-ich	ri-	[[il	ein
.	.	.	4a-/	stóp	-pin-	mi]]	Land
.	.	.	8a-/	kra-	-ta_il	.	der
*	*	*	*	*	*v	*v	*
=142	=142	=142	=142	=142	=142	=142
2.ryy	.	.	4.g/	-i-	cuo-	Fül-
.	.	.	8f#X/	-na	-re	le
.	.	.	8r	.	.	.
!	!	!	!LO:TX:a:i:t=più anima.	!	!	!
.	.	.	8an/	do-	Bel-	und
=143	=143	=143	=143	=143	=143	=143
2.ryy	.	.	(4dd\	-stat-	-lez-	la-
.	.	.	8a/)	.	-za	-chend
.	.	.	8a/L	-ków	ed	grü-
.	.	.	8bn/J	.	.	.
.	.	.	8cc\	i	a-	-ne
!!LO:LB:g=original
=144	=144	=144	=144	=144	=144	=144
2.ryy	.	.	(4cc\	kra-	-mo-	Wei-
.	.	.	8b\)	.	.	.
.	.	.	8dd\	-sy	-re	-ten...
.	.	.	8r	.	.	.
.	.	.	8ee\	nad	Per-	Was
=145	=145	=145	=145	=145	=145	=145
2.ryy	.	.	4ee\	gło-	-che	lockt
.	.	.	8a/	-wą	ri-	wohl
.	.	.	8a/L	nie-	-pin-	mei-
.	.	.	8b/J	.	-ta	.
.	.	.	8cc\	-bo	il	-ne
=146	=146	=146	=146	=146	=146	=146
2.ryy	.	.	4.cc\	ja-	cuo-	See-
.	.	.	8b\	-sne,	-re	-le
.	.	.	8r	.	.	.
.	.	.	16dd\LL	dla-	Per-	hin-
.	.	.	16b\JJ	.	.	.
!!LO:LB:g=original
=147	=147	=147	=147	=147	=147	=147
2.ryy	.	.	4g/	-cze-	-che	-weg
.	.	.	8g/	-goż	ri-	von
.	.	.	4g/	stąd	-pin-	all'
.	.	.	8f#/	u-	-ta_il	dem
=148	=148	=148	=148	=148	=148	=148
2.ryy	.	.	4.f#/	-cie-	cuo-	Pran-
.	.	.	8e/	-ka	-re	-gen,
.	.	.	8r	.	.	.
.	.	.	16ee\LL	me	Bel-	hin-
.	.	.	16cc\JJ	.	.	.
=149	=149	=149	=149	=149	=149	=149
2.ryy	.	.	4a/	ser-	-lez-	-weg
.	.	.	8a/	-ce	-za	von
.	.	.	4a/	w_o-	e	all'
.	.	.	8g/	-ko-	a-	dem
!!LO:LB:g=original
=150	=150	=150	=150	=150	=150	=150
2.ryy	.	.	4.g/	-li-	-mo-	Pran-
.	.	.	8f#/	-ce	-re	-gen
.	.	.	8r	.	.	.
.	.	.	16d/LL	da-	Per-	In
.	.	.	16e/JJ	.	.	.
=151	=151	=151	=151	=151	=151	=151
2.ryy	.	.	8f#/L	-le-	-che	fer-
.	.	.	8g/J	.	.	.
.	.	.	8a/	-kie	sos-	-nes
.	.	.	8b\L	i	-pi-	Land
.	.	.	8cc\J	.	-ra	.
.	.	.	8dd\	nie-	in	zu
=152	=152	=152	=152	=152	=152	=152
2.ryy	.	.	[4.ee\	-ste-	va-	flie-
.	.	.	4ee\]	.	-no	-hen
.	.	.	8dd\	-ty	La	um
!!LO:LB:g=original
=153	=153	=153	=153	=153	=153	=153
.	.	.	8qdd/	.	.	.
2.ryy	.	.	8.cc\L	je-	pa-	woch
.	.	.	16b\Jk	.	.	.
.	.	.	8cc\	-szcze	-tria	in
.	.	.	8a/L	w_dal-	sol	fern'-
.	.	.	8b/J	.	.	.
.	.	.	8cc\	-sze	lon-	-re
=154	=154	=154	=154	=154	=154	=154
2.ryy	.	.	4.dd\	cza-	-ta-	Zei-
!	!	!	!LO:S:color=orange	!	!	!
.	.	.	(8b\	-sy	-no	-ten,
.	.	.	8f#/)	i	.	ach,
.	.	.	8g/	nie-	Per-	und
=155	=155	=155	=155	=155	=155	=155
2.ryy	.	.	8a/L	-ste-	-chè	noch
.	.	.	8b/J	.	.	.
.	.	.	8cc\	-ty!	sos-	in
.	.	.	8dd\L	je-	-pi-	fern'-
.	.	.	8ee\J	.	-ra	.
.	.	.	8ff#\	-szcze	in	-re
!!LO:LB:g=original
=156	=156	=156	=156	=156	=156	=156
2.ryy	.	.	[2.gg\	w_dal-	van-	Zei-
=157	=157	=157	=157	=157	=157	=157
2.ryy	.	.	2.gg\_	.	.	.
=158	=158	=158	=158	=158	=158	=158
2.ryy	.	.	4gg\]	.	.	.
.	.	.	8dd\	-sze,	-noi	-ten,
.	.	.	4ee;\	dal-	pa-	fern'-
.	.	.	8b\	-sze	-tria	-re
=159	=159	=159	=159	=159	=159	=159
2.ryy	.	.	([4.dd;\	cza-	i sol	Zei-
.	.	.	4dd\]	.	.	.
.	.	.	24cc\LL	.	lon-	.
.	.	.	24b\	.	.	.
.	.	.	24a\JJ)	.	.	.
!!LO:LB:g=original
=160	=160	=160	=160	=160	=160	=160
2.ryy	.	.	4g/	-sy?	-tan?	-ten?
.	.	.	8r	.	.	.
.	.	.	4r	.	.	.
.	.	.	8r	.	.	.
=161	=161	=161	=161	=161	=161	=161
!	!	!	!LO:TX:a:t=7.	!	!	!
2.ryy	.	.	2.r	.	.	.
=162	=162	=162	=162	=162	=162	=162
2.ryy	.	.	2.r	.	.	.
=163	=163	=163	=163	=163	=163	=163
2.ryy	.	.	2.r	.	.	.
=164	=164	=164	=164	=164	=164	=164
2.ryy	.	.	2.r	.	.	.
=165	=165	=165	=165	=165	=165	=165
2.ryy	.	.	2.r	.	.	.
=166	=166	=166	=166	=166	=166	=166
2.ryy	.	.	2.r	.	.	.
=167	=167	=167	=167	=167	=167	=167
2.ryy	.	.	2.r	.	.	.
==	==	==	==	==	==	==
*-	*-	*-	*-	*-	*-	*-
!!!system-decoration: (s1,s2)
!!!RDF**kern: < = below
!!!RDF**kern: > = above
!!!ENC: Marcin Jachim
!!!END: 2021-08-20
!!!ENC: Marta Chmielewska
!!!END: 2021-10-04
